!! 00000] TT[WS
!!!OTL: Ku qiuxiang
!!!ARE: Asia, China, Shanxi LInxian
!! Ethnic Group: Han
!! WII, 151 (1)
!!!SCT: J0629
!!!YEM: Copyright 1995, estate of Helmut Schaffrath.
**kern
*ICvox
*Ivox
*M2/4
*k[b-]
*F:
{8g
8cc
8cc
16a
16g
=1
8f
8a
4g
=2
8.ff
16dd
8cc
8a
=3
8.f
16d
16c
16d
8c}
=4
{8d
8f
8g
8cc
=5
16a
16cc
4g
8f
=6
8.d
16f
16c
16d
16c
16A
=7
2G}
==
!!!AGN: Xiaodiao. Qingge, Aisu
!!!ONB: ESAC (Essen Associative Code) Database: CHINA
!!!AMT: simple duple
!!!AIN: vox
!!!EED: Helmut Schaffrath
!!!EEV: 1.0
*-
